!!key: tele-40-12-Fan-All-01-Flute
!!!COM: Telemann, Georg Philipp
!!!CDT: 1681/03/14-1767/06/25
!!!CBL: Magdeburg
!!!CDL: Hamburg
!!!CNT: German
!!!TWV: 40:12
!!!TWV-genre: 40
!!!TWV-work: 12
!!!OPR: 12 Fantasias for transverse flute without bass
!!!OTL: Fantasia 11
!!!OMD: Allegro
!!!OMV: 1
!!!ODT: ca. 1732–1733
!!!AST: Late Baroque
!!!AGN: Fantasia
!!!AMT: Simple quadruple
!!!AIN: Transverse flute
**kern
*ICww
*Iflt
*clefG2
*k[f#]
*G:
*M4/4
*met(c)
=1
16gL
16b
16dd
16bJ
16ddL
16b
16dd
16bJ
16gL
16cc
16ee
16ccJ
16eeL
16cc
16ee
16ccJ
=2
16gL
16b
16dd
16bJ
16gL
16dd
16gg
16ddJ
16gL
16b
16dd
16bJ
16gL
16cc
16ee
16ccJ
!!LO:LB:g=original
=3
16gL
16b
16dd
16bJ
16gL
16dd
16gg
16ddJ
16gL
16b
16dd
16bJ
16gL
16cc
16ee
16ccJ
=4
16gL
16b
16dd
16bJ
16f#L
16a
16cc
16aJ
16gL
16a
8bJ
4r
=5
16ddL
16ff#
16aa
16ff#J
16aaL
16ff#
16aa
16ff#J
16ddL
16gg
16bb
16ggJ
16bbL
16gg
16bb
16ggJ
!!LO:LB:g=original
=6
16ddL
16ff#
16aa
16ff#J
16ddL
16aa
16ddd
16aaJ
16ddL
16ff#
16aa
16ff#J
16ddL
16gg
16bb
16ggJ
=7
16ddL
16ff#
16aa
16ff#J
16ddL
16aa
16ddd
16aaJ
16ddL
16ff#
16aa
16ff#J
16ddL
16gg
16bb
16ggJ
=8
16ddL
16ff#
16aa
16ff#J
16cc#XL
16ee
16gg
16eeJ
16ddL
16ee
8ff#J
16r
16ff#L
16gg
16aaJ
!!LO:LB:g=original
=9
16bbL
16g
16f#
16gJ
16bbL
16gg
16bb
16ggJ
16ccnL
16dd
16ee
16ff#J
16ggL
16aa
16bb
16ggJ
=10
16aaL
16f#
16g
16f#J
16aaL
16ff#
16aa
16ff#J
16bL
16cc#X
16dd#X
16eeJ
16ff#L
16gg
16aa
16ff#J
=11
16ggL
16ee
16ff#
16bJ
16bbL
16gg
16aa
16bJ
16ggL
16ee
16ff#
16bJ
16bbL
16gg
16aa
16bJ
!!LO:LB:g=original
=12
16ggL
16dd#X
16ee
16bJ
16ff#L
16cc#X
16dd#
16bJ
8eeL
8eJ
16r
16eeL
16ff#
16ggJ
=13
16aaL
16f#
16g
16f#J
16aaL
16ff#
16aa
16ff#J
16bL
16cc#X
16dd#X
16eeJ
16ff#L
16gg
16aa
16ff#J
=14
16ggL
16e
16d#X
16eJ
16ggL
16ee
16gg
16eeJ
16aL
16b
16cc#X
16ddnJ
16eeL
16ff#
16gg
16eeJ
!!LO:LB:g=original
=15
16ff#L
16dd
16ee
16aJ
16aaL
16ff#
16gg
16aJ
16ff#L
16dd
16ee
16aJ
16aaL
16ff#
16gg
16aJ
=16
16ff#L
16cc#X
16dd
16aJ
16eeL
16b
16cc#
16aJ
8ddL
8dJ
16r
16ccnL
16b
16aJ
=17
16bL
16gg
16ddd
16ggJ
16bL
16gg
16ddd
16ggJ
16ccL
16ddd
16ccc
16bbJ
16dddL
16ccc
16bb
16cccJ
!!LO:LB:g=original
=18
16aL
16ff#
16ccc
16ff#J
16aL
16ff#
16ccc
16ff#J
16bL
16ccc
16bb
16aaJ
16cccL
16bb
16aa
16bbJ
=19
16g#XL
16ee
16bb
16eeJ
16g#XL
16ee
16bb
16eeJ
16aL
16bb
16aa
16gg#J
16bbL
16aa
16gg#
16aaJ
=20
16f#L
16dd
16aa
16ddJ
16f#L
16dd
16aa
16ddJ
16gnL
16aa
16gg
16ff#J
16aaL
16gg
16ff#
16ggJ
!!LO:LB:g=original
=21
16gL
16gg
16a
16ggJ
16bL
16gg
16cc
16ggJ
16ddL
16ff#
16b
16ggJ
16eeL
16gg
16a
16aaJ
=22
16ff#L
16dd
16gg
16bJ
16ccL
16gg
16dd
16ff#J
8ggL
8gJ
16r
16aL
16b
16cc#XJ
=23
16dL
16dd
16e
16ddJ
16f#L
16dd
16d
16ddJ
16eL
16dd
16f#
16ddJ
16gL
16dd
16e
16ddJ
!!LO:LB:g=original
=24
16f#L
16dd
16d
16ddJ
16eL
16ee
16f#
16ff#J
16gL
16gg
16a
16ggJ
16bL
16gg
16cc
16aaJ
=25
16ddL
16ff#
16b
16ggJ
16eeL
16gg
16a
16aaJ
16ff#L
16dd
16gg
16bJ
16ccL
16gg
16dd
16ff#J
=26
16ggL
16bb
16gg
16ddJ
16bL
16gg
16dd
16bJ
4g
4r
==
*-
!!!RTL1: G. PH. Telemann: Twelve Fantasias for Flute without Bass TWV 40:2-13
!!!RPN1: D'Arcangelo, Rita
!!!RMM1: Da Vinci Classics
!!!RC#1: DV-C00440
!!!RRD1: 2022
!!!RLC1: Andreaskirche, Berlin, Germany
!!!RDT1: 16 September 2020, 17 September 2020
!!!RT#1: 11
!!!RTL2: The Telemann Files: 12 Fantasies for Solo Flute
!!!RPN2: Choi, Jasmine
!!!RMM2: Austrian Gramophone
!!!RC#2: AG0001
!!!RRD2: February 2015
!!!RLC2: LeFrak Hall, Queens, USA
!!!RDT2: 9 June 2014, 10 June 2014
!!!RT#2: 11
!!!RTL3: Georg Philipp Telemann: Twelve Fantasies for Flute
!!!RPN3: Robertello, Thomas
!!!RMM3: Delos
!!!RC#3: DE3396
!!!RRD3: 1 June 2009
!!!RLC3: Clear Creek Recording, Keene, California
!!!RDT3: Unknown
!!!RT#3: 11
